X: 5359
T: Buckfast At Tiffany's
R: jig
M: 6/8
K: Dmajor
|:FBG dcB|ABE BFB|GBc dBc|Aec dcB|
FBG dcB|ABE BFB|GBc dBc|Aec dcB:|
|:Adf gef|dec BAF|BFd BcA|BEF GAB|
Adf gef|dec BAF|BFd BcA|1 BEF GAB:|2 BEF dEB||

